X:356
T:QuickStep,Grand March,T.Thompson,The. RH.356
T:Grand March,T.Thompson,The. RH.356
R:march
S:Rev.R.Harrison’s MS,c1815,Cumbria
O:England
A:Temple Sowerby,Cumbria
Z:vmp.Simon Wilson. Review PJH, 2008.
M:2/4
L:1/16
Q:1/4=80
K:D
FA|d2d2d2 Ad|f2f2 fagf|c2c2 {d}cBce|dcde A2 FA|\
d2d2d2 Ad|f2f2 fage|c2c2 {d}cBce|e4d2 FA|
d2d2d2 Ad|f2f2 (fage)|c2c2 {d}cBce|dcdf A2 FA|\
d2d2d2 Ad|f2f2 fagf|c2c2 {d}cBce|(e4 d4)||
|:ge|c2c2 {d}cBce|dcdf A2ge|c2c2 {d}cBce|\
d3f gage|cc cBce|dcdf A2a2|g2g2 gabg|agab agfe|
d2d2d2 Ad|f2f2 fage|c2c2 {d}cBce|dcdf A2 FA|\
d2d2d2 Ad|f2f2 fagf|c2c2 {d}cBce|e4 d4:|

